X: 2
T: The Trip To Nenagh
R: reel
M: 4/4
L: 1/8
K: Dmix
|~ddAG FADA| A,DFA d^cAG|Ad~dd A=fed| ~=ccG cEcG^c|
~dd AG FADA| A,DFA dcAG|Ad~dd ADFA| GCEA FDD2:|
|:~ddfd Adfa| gfed ^cdec|~ddAd FdAG| FGAB cGBc|
Ad~dd Fd~dd| ^cdef gefg|~aaea ^caed| ^cABc d3z:|


Tune 831	Setting 13986

